svg/bag_suitcase_off.svg

<svg xmlns="http://www.w3.org/2000/svg" viewBox="0 0 24 24"><path d="M2 4.77 3.28 3.5 21 21.22l-1.27 1.28L18 20.76c-.29.17-.62.24-.97.24 0 .58-.47 1-1.03 1-.5 0-1-.42-1-1H9c0 .58-.5 1-1 1-.56 0-1.03-.42-1.03-1C5.89 21 5 20.13 5 19V7.77zM17.03 6C18.11 6 19 6.88 19 8v8.68l-3-3V9h-1.5v3.18l-1.75-1.75V9h-1.43L8.31 6H9V3c0-.58.46-1 1-1h4c.54 0 1 .42 1 1v3zM8 18h1.5v-5.73L8 10.77zm3.25 0h1.5v-2.5l-1.5-1.5zm3.25 0h.73l-.73-.73zm-1-12V3.5h-3V6z"/></svg>

<?xml version="1.0" encoding="UTF-8"?><!DOCTYPE svg PUBLIC "-//W3C//DTD SVG 1.1//EN" "http://www.w3.org/Graphics/SVG/1.1/DTD/svg11.dtd"><svg xmlns="http://www.w3.org/2000/svg" xmlns:xlink="http://www.w3.org/1999/xlink" version="1.1" id="mdi-bag-suitcase-off" width="24" height="24" viewBox="0 0 24 24"><path d="M2 4.77L3.28 3.5L21 21.22L19.73 22.5L18 20.76C17.71 20.93 17.38 21 17.03 21C17.03 21.58 16.56 22 16 22C15.5 22 15 21.58 15 21H9C9 21.58 8.5 22 8 22C7.44 22 6.97 21.58 6.97 21C5.89 21 5 20.13 5 19V7.77L2 4.77M17.03 6C18.11 6 19 6.88 19 8V16.68L16 13.68V9H14.5V12.18L12.75 10.43V9H11.32L8.31 6H9V3C9 2.42 9.46 2 10 2H14C14.54 2 15 2.42 15 3V6H17.03M8 18H9.5V12.27L8 10.77V18M11.25 18H12.75V15.5L11.25 14V18M14.5 18H15.23L14.5 17.27V18M13.5 6V3.5H10.5V6H13.5Z" /></svg>
